/* XPM */
static char * menu_inactive_xpm[] = {
"20 24 2 1",
" 	c #3d3d3d s active_color_2",
".	c #FFFFFF",
"                    ",
"                    ",
"                    ",
"                    ",
"                    ",
"                    ",
"                    ",
"                    ",
"                    ",
"     ..      ..     ",
"     ...    ...     ",
"      ...  ...      ",
"       ......       ",
"        ....        ",
"         ..         ",
"                    ",
"                    ",
"                    ",
"                    ",
"                    ",
"                    ",
"                    ",
"                    ",
"                    "};
