/* XPM */
static char * shade_prelight_xpm[] = {
"20 24 2 1",
" 	c None",
".	c #FFFFFF",
"                    ",
"                    ",
"                    ",
"                    ",
"                    ",
"                    ",
"                    ",
"                    ",
"                    ",
"         ..         ",
"        ....        ",
"       ......       ",
"      ...  ...      ",
"     ...    ...     ",
"     ..      ..     ",
"                    ",
"                    ",
"                    ",
"                    ",
"                    ",
"                    ",
"                    ",
"                    ",
"                    "};
