/* XPM */
static char * stick_inactive_xpm[] = {
"20 24 2 1",
" 	c None",
".	c #FFFFFF",
"                    ",
"                    ",
"                    ",
"                    ",
"                    ",
"                    ",
"                    ",
"                    ",
"        ....        ",
"       ......       ",
"      ...  ...      ",
"      ..    ..      ",
"      ..    ..      ",
"      ...  ...      ",
"       ......       ",
"        ....        ",
"                    ",
"                    ",
"                    ",
"                    ",
"                    ",
"                    ",
"                    ",
"                    "};
