/* XPM */
static char * stick_toggled_pressed_xpm[] = {
"20 24 2 1",
" 	c None",
".	c #FFFFFF",
"                    ",
"                    ",
"                    ",
"                    ",
"                    ",
"                    ",
"                    ",
"                    ",
"                    ",
"        ....        ",
"       ......       ",
"       ......       ",
"       ......       ",
"       ......       ",
"        ....        ",
"                    ",
"                    ",
"                    ",
"                    ",
"                    ",
"                    ",
"                    ",
"                    ",
"                    "};
